dist/svg/vault-line.svg

<svg xmlns="http://www.w3.org/2000/svg" viewBox="0 0 24 24"><path d="M4.701 4.285a2 2 0 0 0-.46.144c-.265.132-.676.526-.798.766-.204.399-.202.333-.202 5.805s-.002 5.406.202 5.805c.113.223.529.639.752.752.2.103.628.201.875.202l.17.001v.65c0 .358.019.717.042.799.108.39.52.618.92.51.22-.059.454-.287.513-.5.025-.087.045-.451.045-.809v-.65h10.48v.65c0 .358.02.722.045.809.059.213.293.441.513.5.4.108.812-.12.92-.51.023-.082.042-.441.042-.799v-.65l.17-.001c.247-.001.675-.099.875-.202.223-.113.639-.529.752-.752.204-.399.202-.333.202-5.805s.002-5.406-.202-5.805c-.122-.24-.533-.634-.797-.765a2 2 0 0 0-.5-.148c-.35-.05-14.214-.048-14.559.003m14.466 1.541c.069.063.073.185.073 2.24v2.174h-1.589l-.085-.233c-.181-.496-.668-1.076-1.142-1.362-.847-.51-1.997-.51-2.849 0-.304.182-.761.645-.946.959a3.6 3.6 0 0 0-.257.576c-.091.277-.105.387-.105.82s.014.543.105.82c.146.44.357.781.692 1.116s.676.546 1.116.692c.277.091.387.105.82.105s.543-.014.82-.105a3.5 3.5 0 0 0 .575-.257c.498-.296.985-.868 1.171-1.378l.085-.233h1.589v2.167c0 1.96-.006 2.174-.066 2.24-.064.07-.339.073-7.167.073-6.551 0-7.106-.005-7.174-.066-.07-.064-.073-.276-.073-5.167 0-4.69.005-5.107.066-5.174.064-.07.339-.073 7.167-.073 6.551 0 7.106.005 7.174.066m-3.639 4.047c.239.117.481.359.599.599.133.27.133.787 0 1.057-.464.943-1.795.943-2.252 0a1.43 1.43 0 0 1-.074-.871c.097-.348.43-.703.785-.838.232-.088.708-.061.942.053" fill-rule="evenodd"/></svg>

<svg fill="none" xmlns="http://www.w3.org/2000/svg" viewBox="0 0 24 24"><path d="M4.701 4.285 C 4.570 4.304,4.363 4.369,4.241 4.429 C 3.976 4.561,3.565 4.955,3.443 5.195 C 3.239 5.594,3.241 5.528,3.241 11.000 C 3.241 16.472,3.239 16.406,3.443 16.805 C 3.556 17.028,3.972 17.444,4.195 17.557 C 4.395 17.660,4.823 17.758,5.070 17.759 L 5.240 17.760 5.240 18.410 C 5.240 18.768,5.259 19.127,5.282 19.209 C 5.390 19.599,5.802 19.827,6.202 19.719 C 6.422 19.660,6.656 19.432,6.715 19.219 C 6.740 19.132,6.760 18.768,6.760 18.410 L 6.760 17.760 12.000 17.760 L 17.240 17.760 17.240 18.410 C 17.240 18.768,17.260 19.132,17.285 19.219 C 17.344 19.432,17.578 19.660,17.798 19.719 C 18.198 19.827,18.610 19.599,18.718 19.209 C 18.741 19.127,18.760 18.768,18.760 18.410 L 18.760 17.760 18.930 17.759 C 19.177 17.758,19.605 17.660,19.805 17.557 C 20.028 17.444,20.444 17.028,20.557 16.805 C 20.761 16.406,20.759 16.472,20.759 11.000 C 20.759 5.528,20.761 5.594,20.557 5.195 C 20.435 4.955,20.024 4.561,19.760 4.430 C 19.639 4.371,19.414 4.304,19.260 4.282 C 18.910 4.232,5.046 4.234,4.701 4.285 M19.167 5.826 C 19.236 5.889,19.240 6.011,19.240 8.066 L 19.240 10.240 18.445 10.240 L 17.651 10.240 17.566 10.007 C 17.385 9.511,16.898 8.931,16.424 8.645 C 15.577 8.135,14.427 8.135,13.575 8.645 C 13.271 8.827,12.814 9.290,12.629 9.604 C 12.546 9.745,12.430 10.004,12.372 10.180 C 12.281 10.457,12.267 10.567,12.267 11.000 C 12.267 11.433,12.281 11.543,12.372 11.820 C 12.518 12.260,12.729 12.601,13.064 12.936 C 13.399 13.271,13.740 13.482,14.180 13.628 C 14.457 13.719,14.567 13.733,15.000 13.733 C 15.433 13.733,15.543 13.719,15.820 13.628 C 15.996 13.570,16.255 13.454,16.395 13.371 C 16.893 13.075,17.380 12.503,17.566 11.993 L 17.651 11.760 18.445 11.760 L 19.240 11.760 19.240 13.927 C 19.240 15.887,19.234 16.101,19.174 16.167 C 19.110 16.237,18.835 16.240,12.007 16.240 C 5.456 16.240,4.901 16.235,4.833 16.174 C 4.763 16.110,4.760 15.898,4.760 11.007 C 4.760 6.317,4.765 5.900,4.826 5.833 C 4.890 5.763,5.165 5.760,11.993 5.760 C 18.544 5.760,19.099 5.765,19.167 5.826 M15.528 9.873 C 15.767 9.990,16.009 10.232,16.127 10.472 C 16.260 10.742,16.260 11.259,16.127 11.529 C 15.663 12.472,14.332 12.472,13.875 11.529 C 13.764 11.300,13.730 10.909,13.801 10.658 C 13.898 10.310,14.231 9.955,14.586 9.820 C 14.818 9.732,15.294 9.759,15.528 9.873 " stroke="none" fill-rule="evenodd" fill="currentColor"/></svg>
